icons/svg/xml.svg

﻿<?xml version="1.0" encoding="utf-8"?>
<!DOCTYPE svg PUBLIC "-//W3C//DTD SVG 1.1//EN" "http://www.w3.org/Graphics/SVG/1.1/DTD/svg11.dtd">
<svg xmlns="http://www.w3.org/2000/svg" xmlns:xlink="http://www.w3.org/1999/xlink" version="1.1" baseProfile="full" width="24" height="24" viewBox="0 0 24.00 24.00" enable-background="new 0 0 24.00 24.00" xml:space="preserve">
	<path fill="#000000" fill-opacity="1" stroke-width="0.2" stroke-linejoin="round" d="M 12.8931,2.98876L 14.8494,3.40458L 11.1069,21.0112L 9.15065,20.5954L 12.8931,2.98876 Z M 19.5858,11.9926L 16,8.40686L 16,5.57844L 22.4216,12L 16,18.4103L 16,15.5784L 19.5858,11.9926 Z M 1.57842,12.0031L 8,5.58148L 8,8.4099L 4.41421,11.9957L 8,15.5815L 8,18.4134L 1.57842,12.0031 Z "/>
</svg>

<svg xmlns="http://www.w3.org/2000/svg" version="1.1" baseProfile="full" width="24" height="24" viewBox="0 0 24.00 24.00" xml:space="preserve"><path fill="#000" fill-opacity="1" stroke-width=".2" stroke-linejoin="round" d="M12.893 2.99l1.956.415-3.743 17.606-1.956-.415L12.894 2.99zm6.693 9.003L16 8.407v-2.83L22.422 12 16 18.41v-2.832l3.586-3.585zm-18.008.01L8 5.58v2.83l-3.586 3.586L8 15.58v2.833l-6.422-6.41z"/></svg>
